src/svg/refresh.svg

<svg width="32" height="32" viewBox="0 0 32 32" xmlns="http://www.w3.org/2000/svg">
<path fill-rule="evenodd" clip-rule="evenodd" d="M14.229 8.19956C15.547 7.90133 16.9192 7.94185 18.2173 8.31735C19.5155 8.69284 20.6974 9.39107 21.6527 10.3469C21.6601 10.3543 21.6676 10.3616 21.6752 10.3687L24.4755 13H21C20.4477 13 20 13.4477 20 14C20 14.5523 20.4477 15 21 15H27C27.1562 15 27.3041 14.9642 27.4358 14.9003C27.5247 14.8573 27.6084 14.8005 27.6836 14.7299C27.7246 14.6915 27.7623 14.6497 27.7964 14.6049C27.8471 14.5383 27.8883 14.467 27.92 14.3926C27.9648 14.2876 27.9907 14.1766 27.9979 14.0648C27.9993 14.0432 28 14.0216 28 14C28 13.9989 28 13.9978 28 13.9967V8C28 7.44772 27.5523 7 27 7C26.4477 7 26 7.44772 26 8V11.6881L23.0559 8.92164C21.8637 7.73272 20.3906 6.86398 18.7731 6.39611C17.1503 5.92674 15.4352 5.87608 13.7876 6.24887C12.14 6.62165 10.6137 7.40573 9.35114 8.52793C8.08855 9.65014 7.13081 11.0739 6.56729 12.6664C6.38305 13.187 6.65576 13.7584 7.17641 13.9427C7.69705 14.1269 8.26848 13.8542 8.45272 13.3335C8.90353 12.0596 9.66973 10.9206 10.6798 10.0228C11.6899 9.12505 12.9109 8.49779 14.229 8.19956ZM4.64335 17.0655C4.50621 17.1177 4.37849 17.201 4.27125 17.3152C4.17625 17.4163 4.10635 17.5319 4.06133 17.6544C4.02581 17.7509 4.00472 17.8543 4.00071 17.9621M4 18.0003L4 24C4 24.5523 4.44772 25 5 25C5.55228 25 6 24.5523 6 24V20.3118L8.94411 23.0783C10.1363 24.2672 11.6094 25.1359 13.227 25.6038C14.8497 26.0732 16.5648 26.1238 18.2124 25.751C19.86 25.3783 21.3863 24.5942 22.6489 23.472C23.9115 22.3498 24.8692 20.926 25.4327 19.3335C25.617 18.8129 25.3442 18.2415 24.8236 18.0572C24.303 17.873 23.7315 18.1457 23.5473 18.6664C23.0965 19.9403 22.3303 21.0793 21.3202 21.9771C20.3101 22.8749 19.0891 23.5021 17.771 23.8004C16.453 24.0986 15.0808 24.0581 13.7827 23.6826C12.4845 23.3071 11.3026 22.6088 10.3473 21.653C10.3399 21.6456 10.3324 21.6384 10.3248 21.6312L7.5246 19H11C11.5523 19 12 18.5523 12 18C12 17.4477 11.5523 17 11 17H5.0102C4.97921 16.9997 4.94822 17.0008 4.91733 17.0034C4.82155 17.0112 4.72959 17.0325 4.64335 17.0655"/>
</svg>

<svg xmlns="http://www.w3.org/2000/svg" width="32" height="32" fill="none" viewBox="0 0 32 32">
  <g class="refresh">
    <path  fill-rule="evenodd" d="M14.229 8.2a8 8 0 017.446 2.169l2.8 2.631H21a1 1 0 100 2h6a.996.996 0 00.92-.607A.999.999 0 0028 14V8a1 1 0 10-2 0v3.688l-2.944-2.766a10 10 0 00-16.489 3.744 1 1 0 101.886.668A8 8 0 0114.229 8.2zm-9.586 8.866a.995.995 0 00-.642.896M4 18v6a1 1 0 102 0v-3.688l2.944 2.766a10 10 0 0016.489-3.744 1 1 0 10-1.886-.668 8 8 0 01-13.222 2.965L7.525 19H11a1 1 0 100-2H5.01a.993.993 0 00-.367.066" class="Union" clip-rule="evenodd"/>
  </g>
</svg>
